bundles/org.openhab.ui.habpanel/web/assets/icons/freepik-housethings/big-luxury-door-entrance-architectural-detail.svg

<svg xmlns="http://www.w3.org/2000/svg" width="468.562" height="468.562" style="enable-background:new 0 0 468.562 468.562" xml:space="preserve"><path d="M105.188 229.5h258.188v-95.625H105.188V229.5zm229.5-86.062v76.5h-38.25v-76.5h38.25zm-86.063 0h38.25v76.5h-38.25v-76.5zm-28.687 0v76.5h-38.25v-76.5h38.25zm-86.063 0h38.25v76.5h-38.25v-76.5zM254.354 69.366c55.749 6.761 93.329 34.501 109.021 48.482V57.375H256.523l-2.169 11.991zM105.188 116.481c14.373-14.516 46.971-40.507 99.469-47.086l-2.18-12.02h-97.289v59.106z"/><path d="M243.844 105.188h-32.675l-4.791-26.335c-50.949 6.388-82.448 32.359-95.319 45.46h245.048c-15.415-13.32-51.475-39.187-103.476-45.489l-4.801 26.364h-3.986zM86.062 19.125h109.453l-1.741-9.563H86.062zM263.485 19.125H382.5V9.562H265.226zM197.255 28.688H90.212l12.757 19.124h97.767zM258.264 47.812h107.33l12.756-19.124H261.745zM286.875 239.062H105.188v229.5h258.188v-229.5h-76.501zm-38.25 19.126h38.25v38.25h-38.25v-38.25zm38.25 86.062h-38.25V306h38.25v38.25zM181.688 306h38.25v38.25h-38.25V306zm-9.563 38.25h-38.25V306h38.25v38.25zm-38.25 19.125h38.25v38.25h-38.25v-38.25zm47.813 0h38.25v38.25h-38.25v-38.25zm66.937 0h38.25v38.25h-38.25v-38.25zm47.813 0h38.25v38.25h-38.25v-38.25zm38.25-19.125h-38.25V306h38.25v38.25zm-114.75-86.062v38.25h-38.25v-38.25h38.25zm-86.063 0h38.25v38.25h-38.25v-38.25zm0 153h38.25v38.25h-38.25v-38.25zm86.063 38.25h-38.25v-38.25h38.25v38.25zm28.687-38.25h38.25v38.25h-38.25v-38.25zm86.063 38.25h-38.25v-38.25h38.25v38.25zm0-191.25v38.25h-38.25v-38.25h38.25z"/><path d="M257.24 0h-55.481l1.741 9.562 1.74 9.563 1.74 9.563 3.472 19.124 1.74 9.563 1.998 10.958 1.722 9.506 3.232 17.786h20.712l3.232-17.786 1.731-9.515 1.99-10.949 1.74-9.563 3.471-19.124 1.74-9.563 1.74-9.563z"/></svg>

<?xml version="1.0" encoding="iso-8859-1"?>
<!-- Generator: Adobe Illustrator 16.0.0, SVG Export Plug-In . SVG Version: 6.00 Build 0)  -->
<!DOCTYPE svg PUBLIC "-//W3C//DTD SVG 1.1//EN" "http://www.w3.org/Graphics/SVG/1.1/DTD/svg11.dtd">
<svg version="1.1" id="Capa_1" xmlns="http://www.w3.org/2000/svg" xmlns:xlink="http://www.w3.org/1999/xlink" x="0px" y="0px"
	 width="468.562px" height="468.562px" viewBox="0 0 468.562 468.562" style="enable-background:new 0 0 468.562 468.562;"
	 xml:space="preserve">
<g>
	<g>
		<path d="M105.188,229.5h66.938h9.562h105.188h9.562h66.938v-95.625H105.188V229.5z M334.688,143.438v76.5h-38.25v-76.5H334.688z
			 M248.625,143.438h38.25v76.5h-38.25V143.438z M219.938,143.438v76.5h-38.25v-76.5H219.938z M133.875,143.438h38.25v76.5h-38.25
			V143.438z"/>
		<path d="M254.354,69.366c55.749,6.761,93.329,34.501,109.021,48.482V57.375H256.523L254.354,69.366z"/>
		<path d="M105.188,116.481c14.373-14.516,46.971-40.507,99.469-47.086l-2.18-12.02h-97.289V116.481z"/>
		<path d="M243.844,105.188h-28.688h-3.987l-4.791-26.335c-50.949,6.388-82.448,32.359-95.319,45.46h245.048
			c-15.415-13.32-51.475-39.187-103.476-45.489l-4.801,26.364H243.844z"/>
		<polygon points="86.062,19.125 195.515,19.125 193.774,9.562 86.062,9.562 		"/>
		<polygon points="263.485,19.125 382.5,19.125 382.5,9.562 265.226,9.562 		"/>
		<polygon points="197.255,28.688 90.212,28.688 102.969,47.812 200.736,47.812 		"/>
		<polygon points="258.264,47.812 365.594,47.812 378.35,28.688 261.745,28.688 		"/>
		<path d="M286.875,239.062H181.688h-9.562h-66.938v229.5h258.188v-229.5h-66.938H286.875z M248.625,258.188h38.25v38.25h-38.25
			V258.188z M286.875,344.25h-38.25V306h38.25V344.25z M181.688,306h38.25v38.25h-38.25V306z M172.125,344.25h-38.25V306h38.25
			V344.25z M133.875,363.375h38.25v38.25h-38.25V363.375z M181.688,363.375h38.25v38.25h-38.25V363.375z M248.625,363.375h38.25
			v38.25h-38.25V363.375z M296.438,363.375h38.25v38.25h-38.25V363.375z M334.688,344.25h-38.25V306h38.25V344.25z M219.938,258.188
			v38.25h-38.25v-38.25H219.938z M133.875,258.188h38.25v38.25h-38.25V258.188z M133.875,411.188h38.25v38.25h-38.25V411.188z
			 M219.938,449.438h-38.25v-38.25h38.25V449.438z M248.625,411.188h38.25v38.25h-38.25V411.188z M334.688,449.438h-38.25v-38.25
			h38.25V449.438z M334.688,258.188v38.25h-38.25v-38.25H334.688z"/>
		<polygon points="257.24,0 201.759,0 203.5,9.562 205.24,19.125 206.98,28.688 210.452,47.812 212.192,57.375 214.19,68.333 
			215.912,77.839 219.144,95.625 239.856,95.625 243.088,77.839 244.819,68.324 246.809,57.375 248.549,47.812 252.02,28.688 
			253.76,19.125 255.5,9.562 		"/>
	</g>
</g>
<g>
</g>
<g>
</g>
<g>
</g>
<g>
</g>
<g>
</g>
<g>
</g>
<g>
</g>
<g>
</g>
<g>
</g>
<g>
</g>
<g>
</g>
<g>
</g>
<g>
</g>
<g>
</g>
<g>
</g>
</svg>
